Adwaita++/mimetypes/16/text-x-c++.svg

<svg height="16" width="16" xmlns="http://www.w3.org/2000/svg">
  <path d="m2.000001 3.9999988h2.000001v1.0000013h-2.000001s-1.000003 0-1.000003.9999967v2.9999998c0 1.0000013 1.000003 1.0000013 1.000003 1.0000013h2.000001v1.0000021h-2.000001s-2.000001 0-2.000001-2.0000034v-2.9999998c0-1.999998 2.000001-1.999998 2.000001-1.999998zm4.999999 1.0000013h1.000003v1.999999h1.9999951v1.0000013h-1.9999951v1.9999975h-1.000003v-1.9999975h-2.000001v-1.0000013h2.000001zm6.000002 0h.999998v1.999999h2v1.0000013h-2v1.9999975h-.999998v-1.9999975h-2.000002v-1.0000013h2.000002z" fill="#474747"/>
</svg>

<svg xmlns="http://www.w3.org/2000/svg" width="16" height="16" version="1.1">
 <path style="fill:#474747" d="M 2.000001,3.9999988 H 4.000002 V 5.0000001 H 2.000001 c 0,0 -1.000003,0 -1.000003,0.9999967 v 2.9999998 c 0,1.0000013 1.000003,1.0000013 1.000003,1.0000013 H 4.000002 V 11 H 2.000001 C 2.000001,11 0,11 0,8.9999966 V 5.9999968 C 0,3.9999988 2.000001,3.9999988 2.000001,3.9999988 Z M 7,5.0000001 h 1.000003 v 1.999999 H 9.9999981 V 8.0000004 H 8.000003 V 9.9999979 H 7 V 8.0000004 H 4.999999 V 6.9999991 H 7 Z m 6.000002,0 H 14 v 1.999999 h 2 V 8.0000004 H 14 V 9.9999979 H 13.000002 V 8.0000004 H 11 V 6.9999991 h 2.000002 z"/>
</svg>
